Numix/16/status/indicator-keyboard-Tr-5.svg

<?xml version="1.0" encoding="UTF-8" standalone="no"?>
<svg
   xmlns:dc="http://purl.org/dc/elements/1.1/"
   xmlns:cc="http://creativecommons.org/ns#"
   xmlns:rdf="http://www.w3.org/1999/02/22-rdf-syntax-ns#"
   xmlns:svg="http://www.w3.org/2000/svg"
   xmlns="http://www.w3.org/2000/svg"
   xmlns:sodipodi="http://sodipodi.sourceforge.net/DTD/sodipodi-0.dtd"
   xmlns:inkscape="http://www.inkscape.org/namespaces/inkscape"
   viewBox="0 0 16 16"
   id="svg2"
   version="1.1"
   inkscape:version="0.91 r13725"
   sodipodi:docname="indicator-keyboard-Tr-5.svg">
  <metadata
     id="metadata14">
    <rdf:RDF>
      <cc:Work
         rdf:about="">
        <dc:format>image/svg+xml</dc:format>
        <dc:type
           rdf:resource="http://purl.org/dc/dcmitype/StillImage" />
      </cc:Work>
    </rdf:RDF>
  </metadata>
  <defs
     id="defs12" />
  <sodipodi:namedview
     pagecolor="#ffffff"
     bordercolor="#666666"
     borderopacity="1"
     objecttolerance="10"
     gridtolerance="10"
     guidetolerance="10"
     inkscape:pageopacity="0"
     inkscape:pageshadow="2"
     inkscape:window-width="640"
     inkscape:window-height="480"
     id="namedview10"
     showgrid="false"
     inkscape:zoom="14.75"
     inkscape:cx="8"
     inkscape:cy="8"
     inkscape:window-x="65"
     inkscape:window-y="24"
     inkscape:window-maximized="0"
     inkscape:current-layer="svg2" />
  <path
     style="fill:#ececec;fill-opacity:1"
     d="M 1.5996094 0 C 0.71320937 2.9605947e-16 0 0.71320937 0 1.5996094 L 0 14.400391 C 2.9605947e-16 15.286791 0.71320937 16 1.5996094 16 L 14.400391 16 C 15.286791 16 16 15.286791 16 14.400391 L 16 1.5996094 C 16 0.71320937 15.286791 0 14.400391 0 L 1.5996094 0 z M 2.6523438 4.859375 L 7.2597656 4.859375 L 7.2597656 5.390625 L 5.2617188 5.390625 L 5.2617188 11.095703 L 4.6503906 11.095703 L 4.6503906 5.390625 L 2.6523438 5.390625 L 2.6523438 4.859375 z M 9.5234375 6.3535156 C 9.7154375 6.3535156 9.8944999 6.3684375 10.0625 6.3984375 C 10.2365 6.4284375 10.357828 6.4582812 10.423828 6.4882812 L 10.306641 6.9921875 C 10.258641 6.9681875 10.159766 6.9439219 10.009766 6.9199219 C 9.8657656 6.8899219 9.6735938 6.875 9.4335938 6.875 C 9.1815937 6.875 8.9782656 6.8936875 8.8222656 6.9296875 C 8.6722656 6.9656875 8.5714375 6.9955312 8.5234375 7.0195312 L 8.5234375 11.095703 L 7.9394531 11.095703 L 7.9394531 6.6582031 C 8.0894531 6.5922031 8.2965469 6.5269375 8.5605469 6.4609375 C 8.8245469 6.3889375 9.1454375 6.3535156 9.5234375 6.3535156 z M 11.382812 8.8417969 L 13.207031 8.8417969 L 13.207031 9.1757812 L 11.716797 9.1757812 C 11.712864 9.2498812 11.706985 9.3458906 11.699219 9.4628906 C 11.691419 9.5798906 11.683581 9.6994187 11.675781 9.8242188 C 11.667981 9.9451188 11.658184 10.062681 11.646484 10.175781 C 11.634784 10.288881 11.624988 10.379012 11.617188 10.445312 C 11.917488 10.453112 12.176131 10.490341 12.394531 10.556641 C 12.612931 10.622941 12.793194 10.711119 12.933594 10.824219 C 13.073993 10.937319 13.175887 11.074475 13.242188 11.234375 C 13.312387 11.394275 13.347656 11.572578 13.347656 11.767578 C 13.347656 11.939178 13.318266 12.097894 13.259766 12.246094 C 13.205166 12.394294 13.120906 12.523613 13.003906 12.632812 C 12.886907 12.742012 12.737994 12.828225 12.558594 12.890625 C 12.379194 12.953025 12.167575 12.984375 11.921875 12.984375 C 11.797075 12.984375 11.679513 12.974578 11.570312 12.955078 C 11.465012 12.939478 11.369003 12.919884 11.283203 12.896484 C 11.201303 12.873084 11.130766 12.849572 11.072266 12.826172 C 11.013766 12.802772 10.970659 12.783178 10.943359 12.767578 L 11.042969 12.427734 C 11.066369 12.443334 11.105556 12.462928 11.160156 12.486328 C 11.218656 12.509728 11.285275 12.533241 11.359375 12.556641 C 11.437375 12.576141 11.523587 12.593775 11.617188 12.609375 C 11.714687 12.624975 11.816575 12.632812 11.921875 12.632812 C 12.116875 12.632812 12.27755 12.611259 12.40625 12.568359 C 12.53885 12.521559 12.644656 12.458859 12.722656 12.380859 C 12.800656 12.302859 12.855519 12.212728 12.886719 12.111328 C 12.921819 12.006028 12.939453 11.894337 12.939453 11.773438 C 12.939453 11.617437 12.913981 11.476362 12.863281 11.351562 C 12.812581 11.226762 12.72245 11.120956 12.59375 11.035156 C 12.46505 10.949356 12.290666 10.884697 12.072266 10.841797 C 11.853866 10.794997 11.577587 10.771484 11.242188 10.771484 C 11.265587 10.572584 11.285181 10.392316 11.300781 10.228516 C 11.316381 10.060816 11.330097 9.9001469 11.341797 9.7480469 C 11.353497 9.5920469 11.361334 9.4431281 11.365234 9.2988281 C 11.373034 9.1506281 11.378913 8.9977969 11.382812 8.8417969 z "
     id="path4" />
</svg>

<svg xmlns="http://www.w3.org/2000/svg" viewBox="0 0 16 16">
 <path d="m 1.6 0 c -0.886 0 -1.6 0.713 -1.6 1.6 l 0 12.801 c 0 0.886 0.713 1.6 1.6 1.6 l 12.801 0 c 0.886 0 1.6 -0.713 1.6 -1.6 l 0 -12.801 c 0 -0.886 -0.713 -1.6 -1.6 -1.6 l -12.801 0 z m 1.053 4.859 l 4.607 0 l 0 0.531 l -1.998 0 l 0 5.705 l -0.611 0 l 0 -5.705 l -1.998 0 l 0 -0.531 z m 6.871 1.494 c 0.192 0 0.371 0.015 0.539 0.045 c 0.174 0.03 0.295 0.06 0.361 0.09 l -0.117 0.504 c -0.048 -0.024 -0.147 -0.048 -0.297 -0.072 c -0.144 -0.03 -0.336 -0.045 -0.576 -0.045 c -0.252 0 -0.455 0.019 -0.611 0.055 c -0.15 0.036 -0.251 0.066 -0.299 0.09 l 0 4.076 l -0.584 0 l 0 -4.437 c 0.15 -0.066 0.357 -0.131 0.621 -0.197 c 0.264 -0.072 0.585 -0.107 0.963 -0.107 z m 1.859 2.488 l 1.824 0 l 0 0.334 l -1.49 0 c -0.004 0.074 -0.01 0.17 -0.018 0.287 c -0.008 0.117 -0.016 0.237 -0.023 0.361 c -0.008 0.121 -0.018 0.238 -0.029 0.352 c -0.012 0.113 -0.021 0.203 -0.029 0.27 c 0.3 0.008 0.559 0.045 0.777 0.111 c 0.218 0.066 0.399 0.154 0.539 0.268 c 0.14 0.113 0.242 0.25 0.309 0.41 c 0.07 0.16 0.105 0.338 0.105 0.533 c 0 0.172 -0.029 0.33 -0.088 0.479 c -0.055 0.148 -0.139 0.278 -0.256 0.387 c -0.117 0.109 -0.266 0.195 -0.445 0.258 c -0.179 0.062 -0.391 0.094 -0.637 0.094 c -0.125 0 -0.242 -0.01 -0.352 -0.029 c -0.105 -0.016 -0.201 -0.035 -0.287 -0.059 c -0.082 -0.023 -0.152 -0.047 -0.211 -0.07 c -0.059 -0.023 -0.102 -0.043 -0.129 -0.059 l 0.1 -0.34 c 0.023 0.016 0.063 0.035 0.117 0.059 c 0.058 0.023 0.125 0.047 0.199 0.07 c 0.078 0.019 0.164 0.037 0.258 0.053 c 0.097 0.016 0.199 0.023 0.305 0.023 c 0.195 0 0.356 -0.022 0.484 -0.064 c 0.133 -0.047 0.238 -0.109 0.316 -0.188 c 0.078 -0.078 0.133 -0.168 0.164 -0.27 c 0.035 -0.105 0.053 -0.217 0.053 -0.338 c 0 -0.156 -0.025 -0.297 -0.076 -0.422 c -0.051 -0.125 -0.141 -0.231 -0.27 -0.316 c -0.129 -0.086 -0.303 -0.15 -0.521 -0.193 c -0.218 -0.047 -0.495 -0.07 -0.83 -0.07 c 0.023 -0.199 0.043 -0.379 0.059 -0.543 c 0.016 -0.168 0.029 -0.328 0.041 -0.48 c 0.012 -0.156 0.02 -0.305 0.023 -0.449 c 0.008 -0.148 0.014 -0.301 0.018 -0.457 z" style="fill:#ececec;fill-opacity:1"/>
</svg>
